;FLAVOR:Marlin
;TIME:9522
;Filament used: 7.38274m
;Layer height: 0.2
;MINX:98.849
;MINY:75.472
;MINZ:0.2
;MAXX:121.148
;MAXY:144.524
;MAXZ:50.8
;TARGET_MACHINE.NAME:Creality Ender-3
;Generated with Cura_SteamEngine 5.7.0
M140 S50
M105
M190 S50
M104 S220
M105
M109 S220
M82 ;absolute extrusion mode
; Ender 3 Custom Start G-code
G92 E0 ; Reset Extruder
G28 ; Home all axes
G1 Z2.0 F3000 ; Move Z Axis up little to prevent scratching of Heat Bed
G1 X0.1 Y20 Z0.3 F5000.0 ; Move to start position
G1 X0.1 Y200.0 Z0.3 F1500.0 E15 ; Draw the first line
G1 X0.4 Y200.0 Z0.3 F5000.0 ; Move to side a little
G1 X0.4 Y20 Z0.3 F1500.0 E30 ; Draw the second line
G92 E0 ; Reset Extruder
G1 Z2.0 F3000 ; Move Z Axis up little to prevent scratching of Heat Bed
G1 X5 Y20 Z0.3 F5000.0 ; Move over to prevent blob squish
G92 E0
G92 E0
G1 F2700 E-5
;LAYER_COUNT:254
;LAYER:0
M107
;MESH:C Spacer.stl
G0 F6000 X120.348 Y143.724 Z0.2
;TYPE:WALL-INNER
G1 F2700 E0
G1 F1200 X120.348 Y135.724 E0.26608
G1 X111.348 Y135.724 E0.56542
G1 X111.018 Y135.669 E0.57655
G1 X110.739 Y135.518 E0.5871
G1 X110.539 Y135.313 E0.59663
G1 X110.387 Y135.036 E0.60714
G1 X110.348 Y134.724 E0.61759
G1 X110.348 Y85.187 E2.2652
G1 X110.47 Y84.793 E2.27892
G1 X110.629 Y84.576 E2.28787
G1 X110.87 Y84.393 E2.29793
G1 X111.219 Y84.272 E2.31022
G1 X120.348 Y84.272 E2.61385
G1 X120.348 Y76.272 E2.87993
G1 X99.649 Y76.273 E3.56838
G1 X99.649 Y143.723 E5.81178
G1 X120.348 Y143.724 E6.50023
G0 F6000 X120.748 Y144.124
G1 F1200 X120.748 Y135.324 E6.79292
G1 X111.279 Y135.324 E7.10786
G1 X110.982 Y135.201 E7.11855
G1 X110.862 Y135.078 E7.12427
G1 X110.752 Y134.801 E7.13418
G1 X110.752 Y85.195 E8.78408
G1 X110.863 Y84.918 E8.79401
G1 X110.983 Y84.795 E8.79972
G1 X111.277 Y84.672 E8.81032
G1 X120.748 Y84.672 E9.12533
G1 X120.748 Y75.872 E9.41802
G1 X99.249 Y75.873 E10.13308
G1 X99.249 Y144.123 E12.40308
G1 X120.748 Y144.124 E13.11814
G0 F6000 X121.148 Y144.524
;TYPE:WALL-OUTER
G1 F1200 X121.148 Y134.924 E13.43744
G1 X111.313 Y134.921 E13.76455
G1 X111.149 Y134.804 E13.77125
G1 X111.149 Y85.246 E15.41956
G1 X111.186 Y85.154 E15.42286
G1 X111.314 Y85.074 E15.42788
G1 X121.148 Y85.072 E15.75496
G1 X121.148 Y75.472 E16.07425
G1 X98.849 Y75.473 E16.81592
G1 X98.849 Y144.523 E19.11253
G1 X121.148 Y144.524 E19.8542
G0 F6000 X120.88 Y144.255
G0 X119.987 Y143.623
G0 X119.988 Y143.364
;TYPE:SKIN
G1 F1200 X100.008 Y143.36 E20.51874
G1 X100.008 Y76.632 E22.73812
G1 X119.988 Y76.632 E23.40266
G1 X119.988 Y83.912 E23.64479
G1 X111.166 Y83.914 E23.93821
G1 X110.697 Y84.075 E23.95471
G1 X110.368 Y84.324 E23.96843
G1 X110.141 Y84.642 E23.98142
G1 X109.991 Y85.034 E23.99538
G1 X109.989 Y134.857 E25.6525
G1 X110.081 Y135.226 E25.66515
G1 X110.242 Y135.519 E25.67627
G1 X110.523 Y135.804 E25.68958
G1 X110.902 Y136.005 E25.70385
G1 X111.308 Y136.081 E25.71759
G1 X119.988 Y136.084 E26.00629
G1 X119.988 Y143.364 E26.24842
G0 F6000 X119.987 Y143.623
G0 X100.733 Y143.623
G0 X100.734 Y143.16
G1 F1200 X100.208 Y142.634 E26.27316
G0 F6000 X100.208 Y142.068
G1 F1200 X101.299 Y143.16 E26.32451
G0 F6000 X101.865 Y143.16
G1 F1200 X100.208 Y141.503 E26.40245
G0 F6000 X100.208 Y140.937
G1 F1200 X102.431 Y143.16 E26.50701
G0 F6000 X102.996 Y143.16
G1 F1200 X100.208 Y140.371 E26.63817
G0 F6000 X100.208 Y139.806
G1 F1200 X103.562 Y143.16 E26.79593
G0 F6000 X104.129 Y143.161
G1 F1200 X100.208 Y139.24 E26.98036
G0 F6000 X100.208 Y138.674
G1 F1200 X104.694 Y143.161 E27.1914
G0 F6000 X105.26 Y143.161
G1 F1200 X100.208 Y138.109 E27.42903
G0 F6000 X100.208 Y137.543
G1 F1200 X105.826 Y143.161 E27.69328
G0 F6000 X106.391 Y143.161
G1 F1200 X100.208 Y136.977 E27.98413
G0 F6000 X100.208 Y136.412
G1 F1200 X106.957 Y143.161 E28.30158
G0 F6000 X107.523 Y143.161
G1 F1200 X100.208 Y135.846 E28.64566
G0 F6000 X100.208 Y135.28
G1 F1200 X108.089 Y143.162 E29.01638
G0 F6000 X108.655 Y143.162
G1 F1200 X100.208 Y134.714 E29.41373
G0 F6000 X100.208 Y134.149
G1 F1200 X109.22 Y143.162 E29.83765
G0 F6000 X109.786 Y143.162
G1 F1200 X100.208 Y133.583 E30.28819
G0 F6000 X100.208 Y133.017
G1 F1200 X110.352 Y143.162 E30.76536
G0 F6000 X110.917 Y143.162
G1 F1200 X100.208 Y132.452 E31.2691
G0 F6000 X100.208 Y131.886
G1 F1200 X111.483 Y143.162 E31.79946
G0 F6000 X112.05 Y143.162
G1 F1200 X100.208 Y131.32 E32.35647
G0 F6000 X100.208 Y130.755
G1 F1200 X112.615 Y143.162 E32.94006
G0 F6000 X113.181 Y143.162
G1 F1200 X100.208 Y130.189 E33.55027
G0 F6000 X100.208 Y129.623
G1 F1200 X113.747 Y143.162 E34.1871
G0 F6000 X114.312 Y143.162
G1 F1200 X100.208 Y129.058 E34.85051
G0 F6000 X100.208 Y128.492
G1 F1200 X114.878 Y143.162 E35.54055
G0 F6000 X115.444 Y143.162
G1 F1200 X100.208 Y127.926 E36.2572
G0 F6000 X100.208 Y127.361
G1 F1200 X116.01 Y143.163 E37.00048
G0 F6000 X116.576 Y143.163
G1 F1200 X100.208 Y126.795 E37.77038
G0 F6000 X100.208 Y126.229
G1 F1200 X117.141 Y143.163 E38.56688
G0 F6000 X117.707 Y143.163
G1 F1200 X110.635 Y136.091 E38.89952
G0 F6000 X111.388 Y136.279
G1 F1200 X118.273 Y143.163 E39.22335
G0 F6000 X118.838 Y143.163
G1 F1200 X111.954 Y136.279 E39.54715
G0 F6000 X112.52 Y136.279
G1 F1200 X119.404 Y143.163 E39.87095
G0 F6000 X119.788 Y142.981
G1 F1200 X113.086 Y136.279 E40.1862
G0 F6000 X113.653 Y136.28
G1 F1200 X119.788 Y142.416 E40.47479
G0 F6000 X119.788 Y141.85
G1 F1200 X114.218 Y136.28 E40.73679
G0 F6000 X114.785 Y136.281
G1 F1200 X119.788 Y141.284 E40.97211
G0 F6000 X119.788 Y140.718
G1 F1200 X115.35 Y136.281 E41.18084
G0 F6000 X115.917 Y136.281
G1 F1200 X119.788 Y140.153 E41.36294
G0 F6000 X119.788 Y139.587
G1 F1200 X116.482 Y136.281 E41.51845
G0 F6000 X117.049 Y136.282
G1 F1200 X119.788 Y139.021 E41.64728
G0 F6000 X119.788 Y138.456
G1 F1200 X117.614 Y136.282 E41.74954
G0 F6000 X118.181 Y136.283
G1 F1200 X119.788 Y137.89 E41.82513
G0 F6000 X119.788 Y137.324
G1 F1200 X118.747 Y136.284 E41.87407
G0 F6000 X119.313 Y136.284
G1 F1200 X119.788 Y136.759 E41.89641
G0 F6000 X120.248 Y136.759
G0 X120.176 Y135.896
G0 X110.522 Y135.553
G0 X110.36 Y135.194
G0 X109.959 Y135.414
G1 F1200 X100.208 Y125.663 E42.35507
G0 F6000 X100.208 Y125.098
G1 F1200 X109.79 Y134.68 E42.80578
G0 F6000 X109.79 Y134.114
G1 F1200 X100.208 Y124.532 E43.25648
G0 F6000 X100.208 Y123.966
G1 F1200 X109.79 Y133.548 E43.70719
G0 F6000 X109.79 Y132.983
G1 F1200 X100.208 Y123.401 E44.1579
G0 F6000 X100.208 Y122.835
G1 F1200 X109.79 Y132.417 E44.60861
G0 F6000 X109.79 Y131.851
G1 F1200 X100.208 Y122.269 E45.05932
G0 F6000 X100.208 Y121.704
G1 F1200 X109.79 Y131.286 E45.51002
G0 F6000 X109.79 Y130.72
G1 F1200 X100.208 Y121.138 E45.96073
G0 F6000 X100.208 Y120.572
G1 F1200 X109.79 Y130.154 E46.41144
G0 F6000 X109.79 Y129.589
G1 F1200 X100.208 Y120.007 E46.86215
G0 F6000 X100.208 Y119.441
G1 F1200 X109.79 Y129.023 E47.31286
G0 F6000 X109.79 Y128.457
G1 F1200 X100.208 Y118.875 E47.76356
G0 F6000 X100.208 Y118.31
G1 F1200 X109.79 Y127.892 E48.21427
G0 F6000 X109.79 Y127.326
G1 F1200 X100.208 Y117.744 E48.66498
G0 F6000 X100.208 Y117.178
G1 F1200 X109.79 Y126.76 E49.11569
G0 F6000 X109.79 Y126.195
G1 F1200 X100.208 Y116.613 E49.56639
G0 F6000 X100.208 Y116.047
G1 F1200 X109.79 Y125.629 E50.0171
G0 F6000 X109.79 Y125.063
G1 F1200 X100.208 Y115.481 E50.46781
G0 F6000 X100.208 Y114.915
G1 F1200 X109.79 Y124.497 E50.91852
G0 F6000 X109.79 Y123.932
G1 F1200 X100.208 Y114.35 E51.36923
G0 F6000 X100.208 Y113.784
G1 F1200 X109.79 Y123.366 E51.81993
G0 F6000 X109.79 Y122.8
G1 F1200 X100.208 Y113.218 E52.27064
G0 F6000 X100.208 Y112.653
G1 F1200 X109.79 Y122.235 E52.72135
G0 F6000 X109.79 Y121.669
G1 F1200 X100.208 Y112.087 E53.17206
G0 F6000 X100.208 Y111.521
G1 F1200 X109.79 Y121.103 E53.62277
G0 F6000 X109.79 Y120.538
G1 F1200 X100.208 Y110.956 E54.07347
G0 F6000 X100.208 Y110.39
G1 F1200 X109.79 Y119.972 E54.52418
G0 F6000 X109.79 Y119.406
G1 F1200 X100.208 Y109.824 E54.97489
G0 F6000 X100.208 Y109.259
G1 F1200 X109.79 Y118.841 E55.4256
G0 F6000 X109.79 Y118.275
G1 F1200 X100.208 Y108.693 E55.87631
G0 F6000 X100.208 Y108.127
G1 F1200 X109.789 Y117.709 E56.32699
G0 F6000 X109.789 Y117.143
G1 F1200 X100.208 Y107.562 E56.77765
G0 F6000 X100.208 Y106.996
G1 F1200 X109.789 Y116.577 E57.22831
G0 F6000 X109.789 Y116.011
G1 F1200 X100.208 Y106.43 E57.67897
G0 F6000 X100.208 Y105.864
G1 F1200 X109.789 Y115.446 E58.12966
G0 F6000 X109.789 Y114.88
G1 F1200 X100.208 Y105.299 E58.58032
G0 F6000 X100.208 Y104.733
G1 F1200 X109.789 Y114.314 E59.03098
G0 F6000 X109.789 Y113.749
G1 F1200 X100.208 Y104.167 E59.48166
G0 F6000 X100.208 Y103.602
G1 F1200 X109.789 Y113.183 E59.93232
G0 F6000 X109.789 Y112.617
G1 F1200 X100.208 Y103.036 E60.38298
G0 F6000 X100.208 Y102.47
G1 F1200 X109.789 Y112.052 E60.83367
G0 F6000 X109.789 Y111.486
G1 F1200 X100.208 Y101.905 E61.28433
G0 F6000 X100.208 Y101.339
G1 F1200 X109.789 Y110.92 E61.73499
G0 F6000 X109.789 Y110.355
G1 F1200 X100.208 Y100.773 E62.18568
G0 F6000 X100.208 Y100.208
G1 F1200 X109.789 Y109.789 E62.63634
G0 F6000 X109.789 Y109.223
G1 F1200 X100.208 Y99.642 E63.087
G0 F6000 X100.208 Y99.076
G1 F1200 X109.789 Y108.658 E63.53768
G0 F6000 X109.789 Y108.092
G1 F1200 X100.208 Y98.511 E63.98834
G0 F6000 X100.208 Y97.945
G1 F1200 X109.789 Y107.526 E64.439
G0 F6000 X109.789 Y106.961
G1 F1200 X100.208 Y97.379 E64.88969
G0 F6000 X100.208 Y96.814
G1 F1200 X109.789 Y106.395 E65.34035
G0 F6000 X109.789 Y105.829
G1 F1200 X100.208 Y96.248 E65.79101
G0 F6000 X100.208 Y95.682
G1 F1200 X109.789 Y105.263 E66.24167
G0 F6000 X109.789 Y104.698
G1 F1200 X100.208 Y95.116 E66.69235
G0 F6000 X100.208 Y94.551
G1 F1200 X109.789 Y104.132 E67.14302
G0 F6000 X109.789 Y103.566
G1 F1200 X100.208 Y93.985 E67.59368
G0 F6000 X100.208 Y93.419
G1 F1200 X109.789 Y103.001 E68.04436
G0 F6000 X109.789 Y102.435
G1 F1200 X100.208 Y92.854 E68.49502
G0 F6000 X100.208 Y92.288
G1 F1200 X109.789 Y101.869 E68.94568
G0 F6000 X109.788 Y101.303
G1 F1200 X100.208 Y91.722 E69.39632
G0 F6000 X100.208 Y91.157
G1 F1200 X109.788 Y100.737 E69.84693
G0 F6000 X109.788 Y100.172
G1 F1200 X100.208 Y90.591 E70.29757
G0 F6000 X100.208 Y90.025
G1 F1200 X109.788 Y99.606 E70.74821
G0 F6000 X109.788 Y99.04
G1 F1200 X100.208 Y89.46 E71.19882
G0 F6000 X100.208 Y88.894
G1 F1200 X109.788 Y98.475 E71.64946
G0 F6000 X109.788 Y97.909
G1 F1200 X100.208 Y88.328 E72.1001
G0 F6000 X100.208 Y87.763
G1 F1200 X109.788 Y97.343 E72.55071
G0 F6000 X109.788 Y96.777
G1 F1200 X100.208 Y87.197 E73.00132
G0 F6000 X100.208 Y86.631
G1 F1200 X109.788 Y96.212 E73.45196
G0 F6000 X109.788 Y95.646
G1 F1200 X100.208 Y86.066 E73.90258
G0 F6000 X100.208 Y85.5
G1 F1200 X109.788 Y95.08 E74.35319
G0 F6000 X109.788 Y94.515
G1 F1200 X100.208 Y84.934 E74.80383
G0 F6000 X100.208 Y84.368
G1 F1200 X109.788 Y93.949 E75.25446
G0 F6000 X109.788 Y93.383
G1 F1200 X100.208 Y83.803 E75.70508
G0 F6000 X100.208 Y83.237
G1 F1200 X109.788 Y92.818 E76.15572
G0 F6000 X109.788 Y92.252
G1 F1200 X100.208 Y82.671 E76.60635
G0 F6000 X100.208 Y82.106
G1 F1200 X109.788 Y91.686 E77.05697
G0 F6000 X109.788 Y91.121
G1 F1200 X100.208 Y81.54 E77.5076
G0 F6000 X100.208 Y80.974
G1 F1200 X109.788 Y90.555 E77.95824
G0 F6000 X109.788 Y89.989
G1 F1200 X100.208 Y80.409 E78.40885
G0 F6000 X100.208 Y79.843
G1 F1200 X109.788 Y89.424 E78.85949
G0 F6000 X109.788 Y88.858
G1 F1200 X100.208 Y79.277 E79.31013
G0 F6000 X100.208 Y78.712
G1 F1200 X109.788 Y88.292 E79.76074
G0 F6000 X109.788 Y87.726
G1 F1200 X100.208 Y78.146 E80.21136
G0 F6000 X100.208 Y77.58
G1 F1200 X109.788 Y87.161 E80.66199
G0 F6000 X109.788 Y86.595
G1 F1200 X100.208 Y77.015 E81.11261
G0 F6000 X100.591 Y76.832
G1 F1200 X109.788 Y86.029 E81.54521
G0 F6000 X109.788 Y85.464
G1 F1200 X101.157 Y76.832 E81.95121
G0 F6000 X101.722 Y76.832
G1 F1200 X109.815 Y84.925 E82.33188
G0 F6000 X109.978 Y84.522
G1 F1200 X102.288 Y76.832 E82.69359
G0 F6000 X102.854 Y76.832
G1 F1200 X110.217 Y84.196 E83.03995
G0 F6000 X110.536 Y83.948
G1 F1200 X103.419 Y76.832 E83.37469
G0 F6000 X103.985 Y76.832
G1 F1200 X110.937 Y83.784 E83.70169
G0 F6000 X111.435 Y83.716
G1 F1200 X104.551 Y76.832 E84.02549
G0 F6000 X105.116 Y76.832
G1 F1200 X112.001 Y83.716 E84.34931
G0 F6000 X112.566 Y83.716
G1 F1200 X105.682 Y76.832 E84.67312
G0 F6000 X106.248 Y76.832
G1 F1200 X113.131 Y83.716 E84.99689
G0 F6000 X113.696 Y83.715
G1 F1200 X106.813 Y76.832 E85.32065
G0 F6000 X107.379 Y76.832
G1 F1200 X114.262 Y83.715 E85.64441
G0 F6000 X114.827 Y83.714
G1 F1200 X107.945 Y76.832 E85.96811
G0 F6000 X108.51 Y76.832
G1 F1200 X115.393 Y83.714 E86.29185
G0 F6000 X115.958 Y83.714
G1 F1200 X109.076 Y76.832 E86.61555
G0 F6000 X109.642 Y76.832
G1 F1200 X116.523 Y83.714 E86.93924
G0 F6000 X117.088 Y83.713
G1 F1200 X110.208 Y76.832 E87.26288
G0 F6000 X110.773 Y76.832
G1 F1200 X117.653 Y83.712 E87.58649
G0 F6000 X118.219 Y83.712
G1 F1200 X111.339 Y76.832 E87.9101
G0 F6000 X111.905 Y76.832
G1 F1200 X118.784 Y83.712 E88.23369
G0 F6000 X119.35 Y83.712
G1 F1200 X112.47 Y76.832 E88.55731
G0 F6000 X113.036 Y76.832
G1 F1200 X119.788 Y83.584 E88.8749
G0 F6000 X119.788 Y83.019
G1 F1200 X113.602 Y76.832 E89.1659
G0 F6000 X114.167 Y76.832
G1 F1200 X119.788 Y82.453 E89.43029
G0 F6000 X119.788 Y81.887
G1 F1200 X114.733 Y76.832 E89.66806
G0 F6000 X115.299 Y76.832
G1 F1200 X119.788 Y81.322 E89.87923
G0 F6000 X119.788 Y80.756
G1 F1200 X115.864 Y76.832 E90.06381
G0 F6000 X116.43 Y76.832
G1 F1200 X119.788 Y80.19 E90.22176
G0 F6000 X119.788 Y79.624
G1 F1200 X116.996 Y76.832 E90.35308
G0 F6000 X117.561 Y76.832
G1 F1200 X119.788 Y79.059 E90.45784
G0 F6000 X119.788 Y78.493
G1 F1200 X118.127 Y76.832 E90.53596
G0 F6000 X118.693 Y76.832
G1 F1200 X119.788 Y77.927 E90.58747
G0 F6000 X119.788 Y77.362
G1 F1200 X119.259 Y76.832 E90.61238
G1 F2700 E85.61238
;MESH:NONMESH
G0 F300 X119.259 Y76.832 Z0.4
G0 F6000 X119.259 Y76.372
G0 X120.176 Y76.444
G0 X120.176 Y84.1
G0 X110.522 Y84.447
G0 X110.522 Y135.553
G0 X120.216 Y135.564
G0 X120.348 Y143.724
;TIME_ELAPSED:155.765944
;LAYER:1
M106 S85
;TYPE:WALL-INNER
;MESH:C Spacer.stl
G1 F2700 E90.61238
G1 F1350 X120.348 Y135.724 E90.87846
G1 X111.348 Y135.724 E91.1778
G1 X111.018 Y135.669 E91.18893
G1 X110.739 Y135.518 E91.19948
G1 X110.539 Y135.313 E91.209
G1 X110.387 Y135.036 E91.21951
G1 X110.348 Y134.724 E91.22997
G1 X110.348 Y85.187 E92.87758
G1 X110.47 Y84.793 E92.8913
G1 X110.629 Y84.576 E92.90024
G1 X110.87 Y84.393 E92.91031
G1 X111.219 Y84.272 E92.92259
G1 X120.348 Y84.272 E93.22622
G1 X120.348 Y76.272 E93.49231
G1 X99.649 Y76.273 E94.18076
G1 X99.649 Y143.723 E96.42415
G1 X120.348 Y143.724 E97.11261
G0 F7500 X120.748 Y144.124
G1 F1350 X120.748 Y135.324 E97.40529
G1 X111.279 Y135.324 E97.72023
G1 X110.982 Y135.201 E97.73093
G1 X110.862 Y135.078 E97.73664
G1 X110.752 Y134.801 E97.74655
G1 X110.752 Y85.195 E99.39646
G1 X110.863 Y84.918 E99.40638
G1 X110.983 Y84.795 E99.4121
G1 X111.277 Y84.672 E99.4227
G1 X120.748 Y84.672 E99.7377
G1 X120.748 Y75.872 E100.03039
G1 X99.249 Y75.873 E100.74545
G1 X99.249 Y144.123 E103.01546
G1 X120.748 Y144.124 E103.73052
G0 F7500 X121.148 Y144.524
;TYPE:WALL-OUTER
G1 F1350 X121.148 Y134.924 E104.04981
G1 X111.313 Y134.921 E104.37693
G1 X111.149 Y134.804 E104.38363
G1 X111.149 Y85.246 E106.03193
G1 X111.186 Y85.154 E106.03523
G1 X111.314 Y85.074 E106.04025
G1 X121.148 Y85.072 E106.36733
G1 X121.148 Y75.472 E106.68663
G1 X98.849 Y75.473 E107.4283
G1 X98.849 Y144.523 E109.72491
G1 X121.148 Y144.524 E110.46658
G0 F7500 X120.88 Y144.255
G0 X119.987 Y143.623
G0 X119.988 Y143.364
;TYPE:SKIN
G1 F1350 X100.008 Y143.36 E111.13112
G1 X100.008 Y76.632 E113.3505
G1 X119.988 Y76.632 E114.01503
G1 X119.988 Y83.912 E114.25717
G1 X111.166 Y83.914 E114.55059
G1 X110.697 Y84.075 E114.56708
G1 X110.368 Y84.324 E114.58081
G1 X110.141 Y84.642 E114.5938
G1 X109.991 Y85.034 E114.60776
G1 X109.989 Y134.857 E116.26488
G1 X110.081 Y135.226 E116.27753
G1 X110.242 Y135.519 E116.28865
G1 X110.523 Y135.804 E116.30196
G1 X110.902 Y136.005 E116.31623
G1 X111.308 Y136.081 E116.32997
G1 X119.988 Y136.084 E116.61866
G1 X119.988 Y143.364 E116.8608
G0 F7500 X119.314 Y143.164
G1 F1350 X119.788 Y142.69 E116.88309
G0 F7500 X119.788 Y142.124
G1 F1350 X118.749 Y143.164 E116.93199
G0 F7500 X118.183 Y143.164
G1 F1350 X119.788 Y141.559 E117.00748
G0 F7500 X119.788 Y140.993
