;FLAVOR:Marlin
;TIME:8595
;Filament used: 6.69574m
;Layer height: 0.2
;MINX:93.848
;MINY:79.8
;MINZ:0.2
;MAXX:126.148
;MAXY:140.2
;MAXZ:50.8
;TARGET_MACHINE.NAME:Creality Ender-3
;Generated with Cura_SteamEngine 5.7.0
M140 S50
M105
M190 S50
M104 S220
M105
M109 S220
M82 ;absolute extrusion mode
; Ender 3 Custom Start G-code
G92 E0 ; Reset Extruder
G28 ; Home all axes
G1 Z2.0 F3000 ; Move Z Axis up little to prevent scratching of Heat Bed
G1 X0.1 Y20 Z0.3 F5000.0 ; Move to start position
G1 X0.1 Y200.0 Z0.3 F1500.0 E15 ; Draw the first line
G1 X0.4 Y200.0 Z0.3 F5000.0 ; Move to side a little
G1 X0.4 Y20 Z0.3 F1500.0 E30 ; Draw the second line
G92 E0 ; Reset Extruder
G1 Z2.0 F3000 ; Move Z Axis up little to prevent scratching of Heat Bed
G1 X5 Y20 Z0.3 F5000.0 ; Move over to prevent blob squish
G92 E0
G92 E0
G1 F2700 E-5
;LAYER_COUNT:254
;LAYER:0
M107
;MESH:T Spacer.stl
G0 F6000 X125.348 Y139.4 Z0.2
;TYPE:WALL-INNER
G1 F2700 E0
G1 F1200 X125.348 Y131.4 E0.26608
G1 X116.239 Y131.4 E0.56905
G1 X115.897 Y131.293 E0.58097
G1 X115.662 Y131.128 E0.59052
G1 X115.498 Y130.929 E0.59909
G1 X115.404 Y130.733 E0.60632
G1 X115.351 Y130.488 E0.61466
G1 X115.348 Y80.6 E2.27394
G1 X104.648 Y80.6 E2.62983
G1 X104.642 Y130.517 E4.29007
G1 X104.498 Y130.929 E4.30459
G1 X104.334 Y131.129 E4.31319
G1 X104.099 Y131.293 E4.32272
G1 X103.769 Y131.4 E4.33426
G1 X94.648 Y131.4 E4.63763
G1 X94.648 Y139.4 E4.90371
G1 X125.348 Y139.4 E5.92479
G0 F6000 X125.748 Y139.8
G1 F1200 X125.748 Y131 E6.21748
G1 X116.282 Y131 E6.53232
G1 X116.001 Y130.891 E6.54235
G1 X115.804 Y130.656 E6.55255
G1 X115.75 Y130.453 E6.55953
G1 X115.748 Y80.2 E8.23095
G1 X104.248 Y80.2 E8.61345
G1 X104.244 Y130.471 E10.28547
G1 X104.192 Y130.656 E10.29186
G1 X103.995 Y130.891 E10.30206
G1 X103.714 Y131 E10.31208
G1 X94.248 Y131 E10.62692
G1 X94.248 Y139.8 E10.91961
G1 X125.748 Y139.8 E11.96731
G0 F6000 X126.148 Y140.2
;TYPE:WALL-OUTER
G1 F1200 X126.148 Y130.6 E12.2866
G1 X116.313 Y130.597 E12.61372
G1 X116.192 Y130.527 E12.61837
G1 X116.148 Y130.418 E12.62228
G1 X116.148 Y79.8 E14.30584
G1 X103.848 Y79.8 E14.71494
G1 X103.847 Y130.466 E16.40009
G1 X103.68 Y130.598 E16.40717
G1 X93.848 Y130.6 E16.73419
G1 X93.848 Y140.2 E17.05349
G1 X126.148 Y140.2 E18.12779
G0 F6000 X125.88 Y139.93
G0 X125.248 Y139.04
G0 X124.988 Y139.04
;TYPE:SKIN
G1 F1200 X95.008 Y139.04 E19.12493
G1 X95.008 Y131.76 E19.36706
G1 X103.673 Y131.758 E19.65526
G1 X104.07 Y131.693 E19.66864
G1 X104.433 Y131.514 E19.6821
G1 X104.704 Y131.255 E19.69457
G1 X104.884 Y130.963 E19.70598
G1 X105.007 Y130.515 E19.72143
G1 X105.008 Y80.96 E21.36964
G1 X114.988 Y80.96 E21.70157
G1 X114.992 Y130.514 E23.34975
G1 X115.114 Y130.981 E23.3658
G1 X115.289 Y131.256 E23.37664
G1 X115.64 Y131.58 E23.39253
G1 X116.165 Y131.758 E23.41097
G1 X124.988 Y131.76 E23.70442
G1 X124.988 Y139.04 E23.94655
G1 F2700 E18.94655
G0 F6000 X125.248 Y139.04
G0 X95.282 Y139.3
G0 X95.282 Y138.84
G1 F2700 E23.94655
G1 F1200 X95.208 Y138.765 E23.95006
G0 F6000 X95.208 Y138.2
G1 F1200 X95.848 Y138.84 E23.98016
G0 F6000 X96.413 Y138.84
G1 F1200 X95.208 Y137.634 E24.03686
G0 F6000 X95.208 Y137.068
G1 F1200 X96.979 Y138.84 E24.12019
G0 F6000 X97.545 Y138.84
G1 F1200 X95.208 Y136.503 E24.23012
G0 F6000 X95.208 Y135.937
G1 F1200 X98.11 Y138.84 E24.36664
G0 F6000 X98.676 Y138.84
G1 F1200 X95.208 Y135.371 E24.52979
G0 F6000 X95.208 Y134.806
G1 F1200 X99.242 Y138.84 E24.71954
G0 F6000 X99.807 Y138.84
G1 F1200 X95.208 Y134.24 E24.93588
G0 F6000 X95.208 Y133.674
G1 F1200 X100.373 Y138.84 E25.17885
G0 F6000 X100.939 Y138.84
G1 F1200 X95.208 Y133.109 E25.44842
G0 F6000 X95.208 Y132.543
G1 F1200 X101.504 Y138.84 E25.74459
G0 F6000 X102.07 Y138.84
G1 F1200 X95.208 Y131.977 E26.06738
G0 F6000 X95.756 Y131.96
G1 F1200 X102.636 Y138.84 E26.39099
G0 F6000 X103.202 Y138.84
G1 F1200 X96.322 Y131.96 E26.71461
G0 F6000 X96.888 Y131.96
G1 F1200 X103.767 Y138.84 E27.0382
G0 F6000 X104.333 Y138.84
G1 F1200 X97.453 Y131.96 E27.36181
G0 F6000 X98.019 Y131.96
G1 F1200 X104.899 Y138.84 E27.68543
G0 F6000 X105.464 Y138.84
G1 F1200 X98.585 Y131.96 E28.00902
G0 F6000 X99.151 Y131.96
G1 F1200 X106.03 Y138.84 E28.33261
G0 F6000 X106.596 Y138.84
G1 F1200 X99.716 Y131.96 E28.65622
G0 F6000 X100.282 Y131.96
G1 F1200 X107.161 Y138.84 E28.97981
G0 F6000 X107.727 Y138.84
G1 F1200 X100.848 Y131.96 E29.3034
G0 F6000 X101.413 Y131.96
G1 F1200 X108.293 Y138.84 E29.62702
G0 F6000 X108.858 Y138.84
G1 F1200 X101.979 Y131.96 E29.95061
G0 F6000 X102.545 Y131.96
G1 F1200 X109.424 Y138.84 E30.2742
G0 F6000 X109.99 Y138.84
G1 F1200 X103.11 Y131.96 E30.59781
G0 F6000 X103.671 Y131.955
G1 F1200 X110.555 Y138.84 E30.92164
G0 F6000 X111.121 Y138.84
G1 F1200 X104.156 Y131.875 E31.24925
G0 F6000 X104.531 Y131.684
G1 F1200 X111.687 Y138.84 E31.58585
G0 F6000 X112.252 Y138.84
G1 F1200 X104.826 Y131.413 E31.93517
G0 F6000 X105.053 Y131.075
G1 F1200 X112.818 Y138.84 E32.30041
G0 F6000 X113.384 Y138.84
G1 F1200 X105.179 Y130.635 E32.68635
G0 F6000 X105.205 Y130.096
G1 F1200 X113.95 Y138.84 E33.09766
G0 F6000 X114.515 Y138.84
G1 F1200 X105.205 Y129.53 E33.53557
G0 F6000 X105.205 Y128.964
G1 F1200 X115.081 Y138.84 E34.00011
G0 F6000 X115.647 Y138.84
G1 F1200 X105.205 Y128.399 E34.49125
G0 F6000 X105.205 Y127.833
G1 F1200 X116.212 Y138.84 E35.00898
G0 F6000 X116.778 Y138.84
G1 F1200 X105.205 Y127.267 E35.55334
G0 F6000 X105.205 Y126.702
G1 F1200 X117.344 Y138.84 E36.1243
G0 F6000 X117.909 Y138.84
G1 F1200 X105.205 Y126.136 E36.72186
G0 F6000 X105.205 Y125.57
G1 F1200 X118.475 Y138.84 E37.34604
G0 F6000 X119.041 Y138.84
G1 F1200 X105.205 Y125.004 E37.99684
G0 F6000 X105.205 Y124.439
G1 F1200 X119.606 Y138.84 E38.67422
G0 F6000 X120.172 Y138.84
G1 F1200 X105.205 Y123.873 E39.37822
G0 F6000 X105.205 Y123.307
G1 F1200 X120.738 Y138.84 E40.10884
G0 F6000 X121.303 Y138.84
G1 F1200 X105.205 Y122.742 E40.86604
G0 F6000 X105.205 Y122.176
G1 F1200 X121.869 Y138.84 E41.64987
G0 F6000 X122.435 Y138.84
G1 F1200 X105.205 Y121.61 E42.46031
G0 F6000 X105.205 Y121.045
G1 F1200 X114.822 Y130.661 E42.91265
G0 F6000 X114.793 Y130.067
G1 F1200 X105.205 Y120.479 E43.36364
G0 F6000 X105.205 Y119.913
G1 F1200 X114.793 Y129.501 E43.81463
G0 F6000 X114.793 Y128.935
G1 F1200 X105.205 Y119.348 E44.26559
G0 F6000 X105.205 Y118.782
G1 F1200 X114.793 Y128.37 E44.71658
G0 F6000 X114.793 Y127.804
G1 F1200 X105.205 Y118.216 E45.16757
G0 F6000 X105.206 Y117.651
G1 F1200 X114.793 Y127.238 E45.61852
G0 F6000 X114.793 Y126.673
G1 F1200 X105.206 Y117.086 E46.06946
G0 F6000 X105.206 Y116.52
G1 F1200 X114.793 Y126.107 E46.5204
G0 F6000 X114.793 Y125.541
G1 F1200 X105.206 Y115.954 E46.97134
G0 F6000 X105.206 Y115.389
G1 F1200 X114.793 Y124.975 E47.42226
G0 F6000 X114.793 Y124.41
G1 F1200 X105.206 Y114.823 E47.87321
G0 F6000 X105.206 Y114.257
G1 F1200 X114.793 Y123.844 E48.32415
G0 F6000 X114.792 Y123.278
G1 F1200 X105.206 Y113.691 E48.77507
G0 F6000 X105.206 Y113.126
G1 F1200 X114.792 Y122.712 E49.22597
G0 F6000 X114.792 Y122.146
G1 F1200 X105.206 Y112.56 E49.67686
G0 F6000 X105.206 Y111.994
G1 F1200 X114.792 Y121.581 E50.12778
G0 F6000 X114.792 Y121.015
G1 F1200 X105.206 Y111.429 E50.57868
G0 F6000 X105.206 Y110.863
G1 F1200 X114.792 Y120.449 E51.02957
G0 F6000 X114.792 Y119.884
G1 F1200 X105.206 Y110.297 E51.48049
G0 F6000 X105.206 Y109.732
G1 F1200 X114.792 Y119.318 E51.93139
G0 F6000 X114.792 Y118.752
G1 F1200 X105.206 Y109.166 E52.38229
G0 F6000 X105.206 Y108.6
G1 F1200 X114.792 Y118.187 E52.83321
G0 F6000 X114.792 Y117.621
G1 F1200 X105.206 Y108.035 E53.2841
G0 F6000 X105.206 Y107.469
G1 F1200 X114.792 Y117.055 E53.735
G0 F6000 X114.792 Y116.489
G1 F1200 X105.206 Y106.903 E54.18589
G0 F6000 X105.206 Y106.338
G1 F1200 X114.792 Y115.923 E54.63677
G0 F6000 X114.792 Y115.357
G1 F1200 X105.207 Y105.773 E55.08759
G0 F6000 X105.207 Y105.207
G1 F1200 X114.792 Y114.792 E55.53844
G0 F6000 X114.792 Y114.226
G1 F1200 X105.207 Y104.641 E55.98929
G0 F6000 X105.207 Y104.076
G1 F1200 X114.792 Y113.66 E56.44011
G0 F6000 X114.792 Y113.095
G1 F1200 X105.207 Y103.51 E56.89096
G0 F6000 X105.207 Y102.944
G1 F1200 X114.792 Y112.529 E57.34181
G0 F6000 X114.792 Y111.963
G1 F1200 X105.207 Y102.378 E57.79266
G0 F6000 X105.207 Y101.813
G1 F1200 X114.792 Y111.398 E58.24351
G0 F6000 X114.792 Y110.832
G1 F1200 X105.207 Y101.247 E58.69436
G0 F6000 X105.207 Y100.681
G1 F1200 X114.792 Y110.266 E59.14521
G0 F6000 X114.792 Y109.701
G1 F1200 X105.207 Y100.116 E59.59606
G0 F6000 X105.207 Y99.55
G1 F1200 X114.791 Y109.134 E60.04686
G0 F6000 X114.791 Y108.568
G1 F1200 X105.207 Y98.984 E60.49766
G0 F6000 X105.207 Y98.419
G1 F1200 X114.791 Y108.003 E60.94846
G0 F6000 X114.791 Y107.437
G1 F1200 X105.207 Y97.853 E61.39927
G0 F6000 X105.207 Y97.287
G1 F1200 X114.791 Y106.871 E61.85007
G0 F6000 X114.791 Y106.306
G1 F1200 X105.207 Y96.722 E62.30087
G0 F6000 X105.207 Y96.156
G1 F1200 X114.791 Y105.74 E62.75167
G0 F6000 X114.791 Y105.174
G1 F1200 X105.207 Y95.59 E63.20247
G0 F6000 X105.207 Y95.025
G1 F1200 X114.791 Y104.609 E63.65328
G0 F6000 X114.791 Y104.043
G1 F1200 X105.207 Y94.459 E64.10408
G0 F6000 X105.207 Y93.893
G1 F1200 X114.791 Y103.477 E64.55488
G0 F6000 X114.791 Y102.912
G1 F1200 X105.208 Y93.328 E65.00566
G0 F6000 X105.208 Y92.763
G1 F1200 X114.791 Y102.346 E65.45641
G0 F6000 X114.79 Y101.78
G1 F1200 X105.208 Y92.197 E65.90714
G0 F6000 X105.208 Y91.631
G1 F1200 X114.79 Y101.214 E66.35788
G0 F6000 X114.79 Y100.648
G1 F1200 X105.208 Y91.065 E66.80861
G0 F6000 X105.208 Y90.5
G1 F1200 X114.79 Y100.082 E67.25932
G0 F6000 X114.79 Y99.517
G1 F1200 X105.208 Y89.934 E67.71005
G0 F6000 X105.208 Y89.368
G1 F1200 X114.79 Y98.951 E68.16078
G0 F6000 X114.79 Y98.385
G1 F1200 X105.208 Y88.803 E68.61149
G0 F6000 X105.208 Y88.237
G1 F1200 X114.79 Y97.82 E69.06222
G0 F6000 X114.79 Y97.254
G1 F1200 X105.208 Y87.671 E69.51295
G0 F6000 X105.208 Y87.106
G1 F1200 X114.79 Y96.688 E69.96366
G0 F6000 X114.79 Y96.123
G1 F1200 X105.208 Y86.54 E70.41439
G0 F6000 X105.208 Y85.974
G1 F1200 X114.79 Y95.557 E70.86512
G0 F6000 X114.79 Y94.991
G1 F1200 X105.208 Y85.409 E71.31583
G0 F6000 X105.208 Y84.843
G1 F1200 X114.79 Y94.425 E71.76654
G0 F6000 X114.79 Y93.859
G1 F1200 X105.208 Y84.277 E72.21724
G0 F6000 X105.208 Y83.712
G1 F1200 X114.79 Y93.294 E72.66795
G0 F6000 X114.79 Y92.728
G1 F1200 X105.208 Y83.146 E73.11866
G0 F6000 X105.208 Y82.58
G1 F1200 X114.79 Y92.162 E73.56937
G0 F6000 X114.79 Y91.596
G1 F1200 X105.208 Y82.014 E74.02007
G0 F6000 X105.208 Y81.449
G1 F1200 X114.79 Y91.031 E74.47078
G0 F6000 X114.79 Y90.465
G1 F1200 X105.484 Y81.16 E74.90848
G0 F6000 X106.05 Y81.16
G1 F1200 X114.79 Y89.899 E75.31956
G0 F6000 X114.79 Y89.334
G1 F1200 X106.615 Y81.16 E75.70407
G0 F6000 X107.181 Y81.16
G1 F1200 X114.79 Y88.768 E76.06195
G0 F6000 X114.789 Y88.202
G1 F1200 X107.747 Y81.16 E76.39318
G0 F6000 X108.312 Y81.16
G1 F1200 X114.789 Y87.636 E76.69782
G0 F6000 X114.789 Y87.07
G1 F1200 X108.878 Y81.16 E76.97583
G0 F6000 X109.444 Y81.16
G1 F1200 X114.789 Y86.505 E77.22724
G0 F6000 X114.789 Y85.939
G1 F1200 X110.01 Y81.16 E77.45203
G0 F6000 X110.575 Y81.16
G1 F1200 X114.789 Y85.373 E77.65022
G0 F6000 X114.789 Y84.808
G1 F1200 X111.141 Y81.16 E77.82181
G0 F6000 X111.707 Y81.16
G1 F1200 X114.789 Y84.242 E77.96678
G0 F6000 X114.789 Y83.676
G1 F1200 X112.272 Y81.16 E78.08515
G0 F6000 X112.838 Y81.16
G1 F1200 X114.789 Y83.111 E78.17692
G0 F6000 X114.789 Y82.545
G1 F1200 X113.404 Y81.16 E78.24206
G0 F6000 X113.969 Y81.16
G1 F1200 X114.789 Y81.979 E78.28061
G0 F6000 X114.789 Y81.413
G1 F1200 X114.535 Y81.16 E78.29253
G1 F2700 E73.29253
G0 F6000 X114.535 Y80.7
G0 X115.176 Y80.772
G0 X115.522 Y131.228
G0 X116.209 Y131.502
G0 X116.11 Y131.949
G1 F2700 E78.29253
G1 F1200 X123.001 Y138.84 E78.61667
G0 F6000 X123.566 Y138.84
G1 F1200 X116.683 Y131.956 E78.94044
G0 F6000 X117.248 Y131.956
G1 F1200 X124.132 Y138.84 E79.26425
G0 F6000 X124.698 Y138.84
G1 F1200 X117.815 Y131.957 E79.588
G0 F6000 X118.38 Y131.957
G1 F1200 X124.788 Y138.365 E79.88941
G0 F6000 X124.788 Y137.799
G1 F1200 X118.946 Y131.957 E80.1642
G0 F6000 X119.512 Y131.957
G1 F1200 X124.788 Y137.233 E80.41237
G0 F6000 X124.788 Y136.667
G1 F1200 X120.078 Y131.957 E80.63391
G0 F6000 X120.644 Y131.958
G1 F1200 X124.788 Y136.102 E80.82884
G0 F6000 X124.788 Y135.536
G1 F1200 X121.21 Y131.958 E80.99713
G0 F6000 X121.776 Y131.958
G1 F1200 X124.788 Y134.97 E81.13881
G0 F6000 X124.788 Y134.405
G1 F1200 X122.342 Y131.959 E81.25386
G0 F6000 X122.908 Y131.959
G1 F1200 X124.788 Y133.839 E81.34229
G0 F6000 X124.788 Y133.273
G1 F1200 X123.474 Y131.96 E81.40407
G0 F6000 X124.04 Y131.96
G1 F1200 X124.788 Y132.708 E81.43926
G0 F6000 X124.788 Y132.142
G1 F1200 X124.606 Y131.96 E81.44782
;MESH:NONMESH
G0 F300 X124.606 Y131.96 Z0.4
G0 F6000 X124.606 Y131.5
G0 X125.176 Y131.572
G0 X125.348 Y139.4
;TIME_ELAPSED:140.659702
;LAYER:1
M106 S85
;TYPE:WALL-INNER
;MESH:T Spacer.stl
G1 F1350 X125.348 Y131.4 E81.7139
G1 X116.239 Y131.4 E82.01687
G1 X115.897 Y131.293 E82.02878
G1 X115.662 Y131.128 E82.03833
G1 X115.498 Y130.929 E82.04691
G1 X115.404 Y130.733 E82.05414
G1 X115.351 Y130.488 E82.06248
G1 X115.348 Y80.6 E83.72176
G1 X104.648 Y80.6 E84.07764
G1 X104.642 Y130.517 E85.73789
G1 X104.498 Y130.929 E85.75241
G1 X104.334 Y131.129 E85.76101
G1 X104.099 Y131.293 E85.77054
G1 X103.769 Y131.4 E85.78208
G1 X94.648 Y131.4 E86.08544
G1 X94.648 Y139.4 E86.35153
G1 X125.348 Y139.4 E87.37261
G0 F7500 X125.748 Y139.8
G1 F1350 X125.748 Y131 E87.6653
G1 X116.282 Y131 E87.98014
G1 X116.001 Y130.891 E87.99017
G1 X115.804 Y130.656 E88.00036
G1 X115.75 Y130.453 E88.00735
G1 X115.748 Y80.2 E89.67877
G1 X104.248 Y80.2 E90.06126
G1 X104.244 Y130.471 E91.73328
G1 X104.192 Y130.656 E91.73968
G1 X103.995 Y130.891 E91.74988
G1 X103.714 Y131 E91.7599
G1 X94.248 Y131 E92.07474
G1 X94.248 Y139.8 E92.36743
G1 X125.748 Y139.8 E93.41512
G0 F7500 X126.148 Y140.2
;TYPE:WALL-OUTER
G1 F1350 X126.148 Y130.6 E93.73442
G1 X116.313 Y130.597 E94.06153
G1 X116.192 Y130.527 E94.06618
G1 X116.148 Y130.418 E94.07009
G1 X116.148 Y79.8 E95.75366
G1 X103.848 Y79.8 E96.16275
G1 X103.847 Y130.466 E97.84791
G1 X103.68 Y130.598 E97.85499
G1 X93.848 Y130.6 E98.18201
G1 X93.848 Y140.2 E98.5013
G1 X126.148 Y140.2 E99.57561
G0 F7500 X125.88 Y139.93
G0 X125.248 Y139.04
G0 X124.988 Y139.04
;TYPE:SKIN
G1 F1350 X95.008 Y139.04 E100.57275
G1 X95.008 Y131.76 E100.81488
G1 X103.673 Y131.758 E101.10308
G1 X104.07 Y131.693 E101.11646
G1 X104.433 Y131.514 E101.12992
G1 X104.704 Y131.255 E101.14239
G1 X104.884 Y130.963 E101.1538
G1 X105.007 Y130.515 E101.16925
G1 X105.008 Y80.96 E102.81745
G1 X114.988 Y80.96 E103.14939
G1 X114.992 Y130.514 E104.79756
G1 X115.114 Y130.981 E104.81362
G1 X115.289 Y131.256 E104.82446
G1 X115.64 Y131.58 E104.84035
G1 X116.165 Y131.758 E104.85878
G1 X124.988 Y131.76 E105.15224
G1 X124.988 Y139.04 E105.39437
G0 F7500 X124.204 Y138.84
G1 F1350 X124.788 Y138.256 E105.42184
G0 F7500 X124.788 Y137.69
G1 F1350 X123.638 Y138.84 E105.47593
G0 F7500 X123.073 Y138.84
G1 F1350 X124.788 Y137.124 E105.55663
G0 F7500 X124.788 Y136.559
G1 F1350 X122.507 Y138.84 E105.66392
G0 F7500 X121.941 Y138.84
G1 F1350 X124.788 Y135.993 E105.79783
G0 F7500 X124.788 Y135.427
G1 F1350 X121.376 Y138.84 E105.95834
G0 F7500 X120.81 Y138.84
G1 F1350 X124.788 Y134.862 E106.14546
G0 F7500 X124.788 Y134.296
G1 F1350 X120.244 Y138.84 E106.35919
G0 F7500 X119.679 Y138.84
G1 F1350 X124.788 Y133.73 E106.59953
G0 F7500 X124.788 Y133.164
G1 F1350 X119.113 Y138.84 E106.86649
G0 F7500 X118.547 Y138.84
G1 F1350 X124.788 Y132.599 E107.16004
G0 F7500 X124.788 Y132.033
G1 F1350 X117.981 Y138.84 E107.48022
G0 F7500 X117.416 Y138.84
G1 F1350 X124.296 Y131.96 E107.80384
G0 F7500 X123.73 Y131.96
G1 F1350 X116.85 Y138.84 E108.12745
G0 F7500 X116.284 Y138.84
G1 F1350 X123.165 Y131.959 E108.45111
G0 F7500 X122.6 Y131.959
G1 F1350 X115.719 Y138.84 E108.77478
G0 F7500 X115.153 Y138.84
G1 F1350 X122.034 Y131.959 E109.09844
G0 F7500 X121.469 Y131.958
G1 F1350 X114.587 Y138.84 E109.42214
G0 F7500 X114.022 Y138.84
G1 F1350 X120.903 Y131.958 E109.74583
G0 F7500 X120.338 Y131.957
G1 F1350 X113.456 Y138.84 E110.06956
G0 F7500 X112.89 Y138.84
G1 F1350 X119.773 Y131.957 E110.39332
